X: 25699
T: Marwnad Yr Heliwr
R: waltz
M: 3/4
K: Dmajor
|:FE|D2 d3 c|d4 A2|D3 F E>C|D4 A2|
d3 c B2|A2 G2 F2|EF G2 F2|E4:|
DE|:F2 D2 E2|F3 G A2|F2 D2 E2|
F3 G A2|d3 c B2|A2 G2 F2|G2 F2 E2|F6:|

